assets/svg/icon_login_identity.svg

<svg width="20" height="20" viewBox="0 0 20 20" fill="none" xmlns="http://www.w3.org/2000/svg">
<path fill-rule="evenodd" clip-rule="evenodd" d="M5.41156 2.56215L4.1764 7.08878L4.15701 7.16909C1.77946 7.54712 0.238281 8.15362 0.238281 8.83767C0.238281 9.98421 4.57797 10.9147 9.93126 10.9147C15.2846 10.9147 19.6242 9.98421 19.6242 8.83767C19.6242 8.15362 18.0831 7.54712 15.7055 7.16909L15.6861 7.08878L14.451 2.56077C14.2488 1.82272 13.4844 1.38515 12.7353 1.54439C11.8851 1.7244 10.7898 1.91411 9.93126 1.91411C9.07274 1.91411 7.97743 1.72579 7.12722 1.54439C6.37809 1.38515 5.61373 1.82133 5.41156 2.56215ZM5.43233 7.91683C5.43684 7.87154 5.45023 7.82757 5.47174 7.78746C5.49325 7.74734 5.52247 7.71187 5.55771 7.68306C5.59295 7.65425 5.63353 7.63267 5.67712 7.61956C5.72071 7.60645 5.76646 7.60207 5.81175 7.60666C7.05799 7.73405 8.45654 7.80467 9.93126 7.80467C11.3069 7.80692 12.6817 7.74083 14.0508 7.60666C14.1422 7.59748 14.2336 7.625 14.3047 7.68317C14.3759 7.74134 14.421 7.82539 14.4302 7.91683C14.4394 8.00828 14.4118 8.09963 14.3537 8.17078C14.2955 8.24193 14.2115 8.28706 14.12 8.29625C12.8488 8.42502 11.4281 8.49703 9.93126 8.49703C8.43439 8.49703 7.01367 8.42502 5.74251 8.29625C5.69721 8.29174 5.65325 8.27835 5.61313 8.25684C5.57302 8.23533 5.53754 8.20611 5.50873 8.17087C5.47992 8.13563 5.45834 8.09505 5.44523 8.05146C5.43212 8.00787 5.42774 7.96212 5.43233 7.91683Z" fill="#0166FF"/>
<path d="M10.009 20L9.31115 15.3433L10.009 13.0047L10.7069 15.3433L10.009 20Z" fill="#0166FF"/>
<path d="M17.4731 12.5358L12.8164 13.2337L10.4778 12.5358L12.8164 11.8379L17.4731 12.5358Z" fill="#0166FF"/>
<path d="M2.54492 12.5358L7.20158 11.8379L9.5402 12.5358L7.20158 13.2337L2.54492 12.5358Z" fill="#0166FF"/>
<path d="M15.2553 17.8458L11.4861 15.0235L10.339 12.8694L12.4791 14.0426L15.2553 17.8458Z" fill="#0166FF"/>
<path d="M4.69933 17.7817L7.52158 14.0125L9.67572 12.8654L8.5025 15.0054L4.69933 17.7817Z" fill="#0166FF"/>
</svg>

<svg xmlns="http://www.w3.org/2000/svg" width="20" height="20" fill="none"><path fill="#0166FF" fill-rule="evenodd" d="M5.412 2.562 4.176 7.09l-.019.08C1.779 7.547.238 8.154.238 8.838c0 1.146 4.34 2.077 9.693 2.077 5.354 0 9.693-.93 9.693-2.077 0-.684-1.54-1.29-3.918-1.669l-.02-.08-1.235-4.528c-.202-.738-.967-1.176-1.716-1.017-.85.18-1.945.37-2.804.37s-1.954-.188-2.804-.37c-.749-.159-1.513.277-1.715 1.018m.02 5.355a.346.346 0 0 1 .38-.31c1.246.127 2.645.198 4.12.198a42 42 0 0 0 4.119-.198.346.346 0 1 1 .069.69c-1.271.128-2.692.2-4.189.2s-2.917-.072-4.188-.2a.346.346 0 0 1-.31-.38" clip-rule="evenodd"/><path fill="#0166FF" d="m10.009 20-.698-4.657.698-2.338.698 2.338zM17.473 12.536l-4.657.698-2.338-.698 2.338-.698zM2.545 12.536l4.657-.698 2.338.698-2.338.698zM15.255 17.846l-3.769-2.822-1.147-2.155 2.14 1.174zM4.7 17.782l2.822-3.77 2.154-1.147-1.174 2.14z"/></svg>
